X: 30547
T: On The Run
R: reel
M: 4/4
K: Amajor
|:FcBA FBAF|ECB,C EFGE|FcBA Bcef|ecBA cBAG|
FcBA FBAF|ECB,C EFGE|FA (3AAA BAFE|1 EF (3FFE F2 z E:|2 EF (3FFE FECB,||
A,2 (3A,A,A, CE (3EEC|EFFE FGAB|cA (3AAA BGEG|AFGE FECB,|
A,2 (3A,A,A, CE (3EEC|EFFE FGAE|FA (3AAA BAFE|EF (3FFE FECB,|
A,2 (3A,A,A, CE (3EEC|EFFE FGAB|cA (3AAA BGEG|GB (3BBB Bcec|
f2 af ecBA|c2 Bc ABGA|FA (3AAA BAFE|EF (3FFE F2 z E||

